svg/invoice_import.svg

<svg xmlns="http://www.w3.org/2000/svg" viewBox="0 0 24 24"><path d="m18 20 3 2V3H3v8h9.67l-2.59-2.59L11.5 7l5 5-5 5-1.42-1.42L12.67 13H3v9l3-2 3 2 3-2 3 2z"/></svg>

<svg xmlns="http://www.w3.org/2000/svg" id="mdi-invoice-import" viewBox="0 0 24 24"><path d="M18 20L21 22V3H3V11H12.67L10.08 8.41L11.5 7L16.5 12L11.5 17L10.08 15.58L12.67 13H3V22L6 20L9 22L12 20L15 22L18 20Z" /></svg>
